public/collaborate-icon.svg

<svg width="60" height="60" viewBox="0 0 60 60" fill="none" xmlns="http://www.w3.org/2000/svg">
<circle cx="29.6675" cy="12.1333" r="3.68375" stroke="black" stroke-opacity="0.8" stroke-width="1.5"/>
<circle cx="11.4892" cy="36.5189" r="3.68375" stroke="black" stroke-opacity="0.8" stroke-width="1.5"/>
<circle cx="47.8458" cy="36.5189" r="3.68375" stroke="black" stroke-opacity="0.8" stroke-width="1.5"/>
<path d="M20.5783 27.9873C27.188 14.8822 32.106 14.686 39.4217 27.9873H20.5783Z" stroke="black" stroke-opacity="0.8" stroke-width="1.5" stroke-linecap="round" stroke-linejoin="round"/>
<path d="M2.39999 52.3728C9.00965 39.2677 13.9277 39.0716 21.2434 52.3728H2.39999Z" stroke="black" stroke-opacity="0.8" stroke-width="1.5" stroke-linecap="round" stroke-linejoin="round"/>
<path d="M38.7566 52.3728C45.3663 39.2677 50.2843 39.0716 57.6 52.3728H38.7566Z" stroke="black" stroke-opacity="0.8" stroke-width="1.5" stroke-linecap="round" stroke-linejoin="round"/>
<path fill-rule="evenodd" clip-rule="evenodd" d="M30.0795 49.2C28.2716 49.2 28.0843 47.6276 28.1038 47.0019H32.0562C32.0241 47.6099 31.8873 49.2 30.0795 49.2ZM28.1038 45.1313C28.0212 44.061 25.7219 42.9742 25.7219 40.2699C25.7219 37.3855 27.8169 35.8561 30.1003 35.7982C32.3843 35.8563 34.4792 37.3855 34.4792 40.2699C34.4793 42.9742 32.1634 44.0493 32.0562 45.1313H28.1038Z" stroke="black" stroke-opacity="0.8" stroke-width="1.25" stroke-linecap="round" stroke-linejoin="round"/>
<path d="M29.9905 30.6V33.3359" stroke="black" stroke-opacity="0.8" stroke-width="1.25" stroke-linecap="round" stroke-linejoin="round"/>
<path d="M36.4125 32.2416L34.526 34.1761" stroke="black" stroke-opacity="0.8" stroke-width="1.25" stroke-linecap="round" stroke-linejoin="round"/>
<path d="M23.5875 32.2416L25.474 34.1761" stroke="black" stroke-opacity="0.8" stroke-width="1.25" stroke-linecap="round" stroke-linejoin="round"/>
</svg>

<svg xmlns="http://www.w3.org/2000/svg" width="60" height="60" fill="none" xmlns:v="https://vecta.io/nano"><style><![CDATA[.B{stroke-opacity:.8}.C{stroke-linejoin:round}]]></style><g stroke="#000" class="B"><g stroke-width="1.5"><circle cx="29.668" cy="12.133" r="3.684"/><circle cx="11.489" cy="36.519" r="3.684"/><circle cx="47.846" cy="36.519" r="3.684"/><path d="M20.578 27.987c6.61-13.105 11.528-13.301 18.843 0H20.578zM2.4 52.373c6.61-13.105 11.528-13.301 18.843 0H2.4zm36.357 0c6.61-13.105 11.528-13.301 18.843 0H38.757z" class="C"/></g><g stroke-width="1.25" class="C"><path d="M30.08 49.2c-1.808 0-1.995-1.572-1.976-2.198h3.952c-.032.608-.169 2.198-1.977 2.198zm-1.976-4.069c-.083-1.07-2.382-2.157-2.382-4.861 0-2.884 2.095-4.414 4.378-4.472 2.284.058 4.379 1.587 4.379 4.472 0 2.704-2.316 3.779-2.423 4.861h-3.952z"/><path d="M29.991 30.6v2.736m6.422-1.094l-1.886 1.935m-10.939-1.935l1.887 1.935" stroke-linecap="round"/></g></g></svg>
